X:1
T:GB/7c/1 Lord Carter Is My Name
%%VWML:GB-7c-1-0
F:http://www.vwml.org/record/GB/7c/1
C:Transcribed by Simon Furey and Lewis Jones
L:1/8
Q:1/4=100
M:4/4
I:linebreak $
K:Dmix
D2 | G2 G2 GABc | A6 A2 | d2 dB G2 cB | A6 Bc |$ dBdB GBde | c2 B2 AFDD | ABcB AGEE | D6 |]

